X: 21274
T: Kelly Peck's
R: jig
M: 6/8
K: Gmajor
|:DGF GBc|BGD CDB,-|B,CD EDE|DEF GFG|
DGF GBc|BGD CDB,-|B,CD EDE|DEF G3:|
B3 Bcd|c3- cag|f3 -fga|gfa gdc|
B3 Bcd|c3- cag|fga gfd|cAF G2A|
B3 Bcd|c3- cag|f3 -fga|gfa gfa|
b3 b/a/gf|g3 efg|gff gff|gfd cAF||

